X: 42398
T: Were You At The Fair?
R: strathspey
M: 4/4
K: Dmajor
|:A>FD>E F2 F>G|A>FD>E F2 E2|A>FD>E F>EF>G|A>BA>F E2 D2:|
|:A>dd>e d2 d>B|A>dd>B A>FE>D|A>dd>e d2 d>B|A>BA>F E2 D2:|

